dist/svg/u1F58A.svg

<?xml version="1.0" encoding="UTF-8"?><svg id="a" xmlns="http://www.w3.org/2000/svg" viewBox="0 0 40 40"><rect y="0" width="40" height="40" fill="none"/><g><path d="M15.098,30.412c-5.574,5.574-11.102,9.083-12.347,7.837-1.245-1.245,2.264-6.773,7.837-12.347" fill="#8a94a0"/><g><path d="M13.796,19.549c-3.713,3.92-6.764,7.731-8.828,10.929-.301,.466-.276,1.011,.045,1.331l4.18,4.18c.32,.32,.865,.346,1.331,.045,3.198-2.065,7.009-5.116,10.929-8.828l-7.656-7.656Z" fill="#d0d5da"/><path d="M23.569,25.149c9.539-9.539,15.544-19,13.413-21.131s-11.592,3.874-21.131,13.413c-.708,.708-1.388,1.414-2.055,2.117l7.656,7.656c.704-.667,1.409-1.347,2.117-2.055Z" fill="#e4e7ea"/></g><path d="M23.233,24.814c.397,.397,1.128,.316,1.614-.182,9.007-9.237,14.405-18.343,12.135-20.614-2.27-2.27-11.377,3.128-20.614,12.135-.498,.486-.579,1.217-.182,1.614l7.047,7.047Z" fill="#afb7c0"/></g></svg>

<svg id="Layer_1" data-name="Layer 1" xmlns="http://www.w3.org/2000/svg" viewBox="0 0 40 40"><defs><style>.cls-1{fill:none;}.cls-2{fill:#8a94a0;}.cls-3{fill:#d0d5da;}.cls-4{fill:#e4e7ea;}.cls-5{fill:#afb7c0;}</style></defs><rect class="cls-1" width="40" height="40"/><path class="cls-2" d="M15.1,30.412C9.524,35.985,4,39.494,2.751,38.249S5.015,31.476,10.588,25.9"/><path class="cls-3" d="M13.8,19.549A79.024,79.024,0,0,0,4.967,30.478a1.057,1.057,0,0,0,.045,1.33l4.18,4.18a1.057,1.057,0,0,0,1.33.045A79.024,79.024,0,0,0,21.451,27.2Z"/><path class="cls-4" d="M23.569,25.149c9.539-9.539,15.544-19,13.413-21.131S25.39,7.892,15.851,17.431c-.708.708-1.389,1.414-2.055,2.118L21.451,27.2C22.155,26.538,22.861,25.857,23.569,25.149Z"/><path class="cls-5" d="M23.233,24.814a1.159,1.159,0,0,0,1.614-.182C33.854,15.4,39.252,6.289,36.982,4.018S25.605,7.146,16.368,16.153a1.159,1.159,0,0,0-.182,1.614Z"/></svg>
